;FLAVOR:Marlin
;TIME:945
;Filament used: 1.38794m
;Layer height: 0.2
;Generated with Cura_SteamEngine 3.6.0
M140 S60
M105
M190 S60
M104 S200
M105
M109 S200
M82 ;absolute extrusion mode
G21 ;metric values
G90 ;absolute positioning
M82 ;set extruder to absolute mode
M107 ;start with the fan off
G28 X0 Y0 ;move X/Y to min endstops
G28 Z0 ;move Z to min endstops
G1 Z15.0 F9000 ;move the platform down 15mm
G92 E0 ;zero the extruded length
G1 F200 E3 ;extrude 3mm of feed stock
G92 E0 ;zero the extruded length again
G1 F9000
;Put printing message on LCD screen
M117 Printing...
G92 E0
G1 F1500 E-6.5
;LAYER_COUNT:100
;LAYER:0
M107
G0 F3600 X92.879 Y92.996 Z0.3
;TYPE:SKIRT
G1 F1500 E0
G1 F2400 X92.996 Y92.879 E0.00825
G1 X93.369 Y92.562 E0.03268
G1 X93.789 Y92.31 E0.05711
G1 X94.244 Y92.13 E0.08152
G1 X94.722 Y92.026 E0.10593
G1 X95.117 Y92 E0.12568
G1 X114.883 Y92 E1.11181
G1 X115.371 Y92.04 E1.13624
G1 X115.846 Y92.159 E1.16067
G1 X116.295 Y92.353 E1.18507
G1 X116.707 Y92.618 E1.20951
G1 X117.004 Y92.879 E1.22924
G1 X117.121 Y92.996 E1.23749
G1 X117.438 Y93.369 E1.26191
G1 X117.69 Y93.789 E1.28635
G1 X117.87 Y94.244 E1.31076
G1 X117.974 Y94.722 E1.33517
G1 X118 Y95.117 E1.35491
G1 X118 Y114.883 E2.34104
G1 X117.96 Y115.371 E2.36547
G1 X117.841 Y115.846 E2.3899
G1 X117.647 Y116.295 E2.4143
G1 X117.382 Y116.707 E2.43874
G1 X117.121 Y117.004 E2.45847
G1 X117.004 Y117.121 E2.46673
G1 X116.631 Y117.438 E2.49115
G1 X116.211 Y117.69 E2.51558
G1 X115.756 Y117.87 E2.53999
G1 X115.278 Y117.974 E2.5644
G1 X114.883 Y118 E2.58415
G1 X95.117 Y118 E3.57028
G1 X94.629 Y117.96 E3.59471
G1 X94.154 Y117.841 E3.61914
G1 X93.705 Y117.647 E3.64354
G1 X93.293 Y117.382 E3.66798
G1 X92.996 Y117.121 E3.68771
G1 X92.879 Y117.004 E3.69596
G1 X92.562 Y116.631 E3.72038
G1 X92.31 Y116.211 E3.74482
G1 X92.13 Y115.756 E3.76923
G1 X92.026 Y115.278 E3.79364
G1 X92 Y114.883 E3.81338
G1 X92 Y95.117 E4.79951
G1 X92.04 Y94.629 E4.82394
G1 X92.159 Y94.154 E4.84837
G1 X92.353 Y93.705 E4.87277
G1 X92.618 Y93.293 E4.89721
G1 X92.879 Y92.996 E4.91694
G0 F3600 X93.162 Y93.279
G1 F2400 X93.279 Y93.162 E4.9252
G1 X93.628 Y92.869 E4.94793
G1 X94.023 Y92.642 E4.97066
G1 X94.451 Y92.487 E4.99337
G1 X95.117 Y92.4 E5.02688
G1 X114.883 Y92.4 E6.01301
G1 X115.337 Y92.44 E6.03575
G1 X115.777 Y92.558 E6.05847
G1 X116.189 Y92.752 E6.08119
G1 X116.721 Y93.162 E6.1147
G1 X116.838 Y93.279 E6.12296
G1 X117.131 Y93.628 E6.14569
G1 X117.358 Y94.023 E6.16842
G1 X117.513 Y94.451 E6.19113
G1 X117.6 Y95.117 E6.22464
G1 X117.6 Y114.883 E7.21077
G1 X117.56 Y115.337 E7.23351
G1 X117.442 Y115.777 E7.25623
G1 X117.248 Y116.189 E7.27895
G1 X116.838 Y116.721 E7.31246
G1 X116.721 Y116.838 E7.32072
G1 X116.372 Y117.131 E7.34345
G1 X115.977 Y117.358 E7.36618
G1 X115.549 Y117.513 E7.38889
G1 X114.883 Y117.6 E7.4224
G1 X95.117 Y117.6 E8.40853
G1 X94.663 Y117.56 E8.43127
G1 X94.223 Y117.442 E8.454
G1 X93.811 Y117.248 E8.47671
G1 X93.279 Y116.838 E8.51022
G1 X93.162 Y116.721 E8.51848
G1 X92.869 Y116.372 E8.54121
G1 X92.642 Y115.977 E8.56394
G1 X92.487 Y115.549 E8.58665
G1 X92.4 Y114.883 E8.62016
G1 X92.4 Y95.117 E9.60629
G1 X92.44 Y94.663 E9.62903
G1 X92.558 Y94.223 E9.65176
G1 X92.752 Y93.811 E9.67448
G1 X93.162 Y93.279 E9.70799
G0 F3600 X93.444 Y93.561
G1 F2400 X93.561 Y93.444 E9.71624
G1 X93.885 Y93.178 E9.73715
G1 X94.252 Y92.977 E9.75803
G1 X94.652 Y92.85 E9.77897
G1 X95.117 Y92.8 E9.8023
G1 X114.883 Y92.8 E10.78843
G1 X115.3 Y92.84 E10.80933
G1 X115.702 Y92.958 E10.83023
G1 X116.074 Y93.151 E10.85114
G1 X116.439 Y93.444 E10.87449
G1 X116.556 Y93.561 E10.88275
G1 X116.822 Y93.885 E10.90366
G1 X117.023 Y94.252 E10.92454
G1 X117.15 Y94.652 E10.94547
G1 X117.2 Y95.117 E10.96881
G1 X117.2 Y114.883 E11.95494
G1 X117.16 Y115.3 E11.97584
G1 X117.042 Y115.702 E11.99674
G1 X116.849 Y116.074 E12.01765
G1 X116.556 Y116.439 E12.041
G1 X116.439 Y116.556 E12.04925
G1 X116.115 Y116.822 E12.07017
G1 X115.748 Y117.023 E12.09104
G1 X115.348 Y117.15 E12.11198
G1 X114.883 Y117.2 E12.13531
G1 X95.117 Y117.2 E13.12144
G1 X94.7 Y117.16 E13.14234
G1 X94.298 Y117.042 E13.16325
G1 X93.926 Y116.849 E13.18415
G1 X93.561 Y116.556 E13.2075
G1 X93.444 Y116.439 E13.21576
G1 X93.178 Y116.115 E13.23667
G1 X92.977 Y115.748 E13.25755
G1 X92.85 Y115.348 E13.27849
G1 X92.8 Y114.883 E13.30182
G1 X92.8 Y95.117 E14.28795
G1 X92.84 Y94.7 E14.30885
G1 X92.958 Y94.298 E14.32975
G1 X93.151 Y93.926 E14.35066
G1 X93.444 Y93.561 E14.37401
G0 F3600 X93.727 Y93.844
G1 F2400 X93.844 Y93.727 E14.38227
G1 X94.139 Y93.489 E14.40118
G1 X94.477 Y93.318 E14.42007
G1 X94.843 Y93.221 E14.43897
G1 X95.117 Y93.2 E14.45268
G1 X114.883 Y93.2 E15.4388
G1 X115.26 Y93.24 E15.45772
G1 X115.62 Y93.358 E15.47662
G1 X115.947 Y93.548 E15.49549
G1 X116.156 Y93.727 E15.50922
G1 X116.273 Y93.844 E15.51747
G1 X116.511 Y94.139 E15.53638
G1 X116.682 Y94.477 E15.55528
G1 X116.779 Y94.843 E15.57417
G1 X116.8 Y95.117 E15.58788
G1 X116.8 Y114.883 E16.57401
G1 X116.76 Y115.26 E16.59292
G1 X116.642 Y115.62 E16.61182
G1 X116.452 Y115.947 E16.63069
G1 X116.273 Y116.156 E16.64442
G1 X116.156 Y116.273 E16.65268
G1 X115.861 Y116.511 E16.67159
G1 X115.523 Y116.682 E16.69048
G1 X115.157 Y116.779 E16.70937
G1 X114.883 Y116.8 E16.72308
G1 X95.117 Y116.8 E17.70921
G1 X94.74 Y116.76 E17.72813
G1 X94.38 Y116.642 E17.74703
G1 X94.053 Y116.452 E17.7659
G1 X93.844 Y116.273 E17.77963
G1 X93.727 Y116.156 E17.78788
G1 X93.489 Y115.861 E17.80679
G1 X93.318 Y115.523 E17.82569
G1 X93.221 Y115.157 E17.84458
G1 X93.2 Y114.883 E17.85829
G1 X93.2 Y95.117 E18.84442
G1 X93.24 Y94.74 E18.86333
G1 X93.358 Y94.38 E18.88223
G1 X93.548 Y94.053 E18.9011
G1 X93.727 Y93.844 E18.91483
G0 F3600 X94.01 Y94.127
G1 F2400 X94.127 Y94.01 E18.92309
G1 X94.39 Y93.804 E18.93975
G1 X94.694 Y93.665 E18.95643
G1 X95.117 Y93.6 E18.97778
G1 X114.883 Y93.6 E19.96391
G1 X115.215 Y93.64 E19.98059
G1 X115.527 Y93.757 E19.99722
G1 X115.873 Y94.01 E20.0186
G1 X115.99 Y94.127 E20.02686
G1 X116.196 Y94.39 E20.04352
G1 X116.335 Y94.694 E20.0602
G1 X116.4 Y95.117 E20.08155
G1 X116.4 Y114.883 E21.06768
G1 X116.36 Y115.215 E21.08437
G1 X116.243 Y115.527 E21.10099
G1 X115.99 Y115.873 E21.12237
G1 X115.873 Y115.99 E21.13063
G1 X115.61 Y116.196 E21.1473
G1 X115.306 Y116.335 E21.16397
G1 X114.883 Y116.4 E21.18532
G1 X95.117 Y116.4 E22.17145
G1 X94.785 Y116.36 E22.18814
G1 X94.473 Y116.243 E22.20476
G1 X94.127 Y115.99 E22.22615
G1 X94.01 Y115.873 E22.2344
G1 X93.804 Y115.61 E22.25107
G1 X93.665 Y115.306 E22.26775
G1 X93.6 Y114.883 E22.2891
G1 X93.6 Y95.117 E23.27523
G1 X93.64 Y94.785 E23.29191
G1 X93.757 Y94.473 E23.30853
G1 X94.01 Y94.127 E23.32992
G0 F3600 X94.293 Y94.41
G1 F2400 X94.41 Y94.293 E23.33817
G1 X94.636 Y94.124 E23.35225
G1 X94.9 Y94.024 E23.36634
G1 X95.117 Y94 E23.37723
G1 X114.883 Y94 E24.36336
G1 X115.162 Y94.04 E24.37742
G1 X115.419 Y94.156 E24.39149
G1 X115.59 Y94.293 E24.40242
G1 X115.707 Y94.41 E24.41067
G1 X115.876 Y94.636 E24.42475
G1 X115.976 Y94.9 E24.43884
G1 X116 Y95.117 E24.44973
G1 X116 Y114.883 E25.43586
G1 X115.96 Y115.162 E25.44992
G1 X115.844 Y115.419 E25.46399
G1 X115.707 Y115.59 E25.47492
G1 X115.59 Y115.707 E25.48317
G1 X115.364 Y115.876 E25.49725
G1 X115.1 Y115.976 E25.51134
G1 X114.883 Y116 E25.52223
G1 X95.117 Y116 E26.50836
G1 X94.838 Y115.96 E26.52242
G1 X94.581 Y115.844 E26.53649
G1 X94.41 Y115.707 E26.54742
G1 X94.293 Y115.59 E26.55568
G1 X94.124 Y115.364 E26.56975
G1 X94.024 Y115.1 E26.58384
G1 X94 Y114.883 E26.59473
G1 X94 Y95.117 E27.58086
G1 X94.04 Y94.838 E27.59492
G1 X94.156 Y94.581 E27.60899
G1 X94.293 Y94.41 E27.61992
G0 F3600 X94.576 Y94.693
G1 F2400 X94.693 Y94.576 E27.62818
G1 X94.872 Y94.452 E27.63904
G1 X95.117 Y94.4 E27.65154
G1 X114.883 Y94.4 E28.63767
G1 X115.098 Y94.44 E28.64858
G1 X115.307 Y94.576 E28.66102
G1 X115.424 Y94.693 E28.66927
G1 X115.548 Y94.872 E28.68013
G1 X115.6 Y95.117 E28.69263
G1 X115.6 Y114.883 E29.67876
G1 X115.56 Y115.098 E29.68967
G1 X115.424 Y115.307 E29.70211
G1 X115.307 Y115.424 E29.71037
G1 X115.128 Y115.548 E29.72123
G1 X114.883 Y115.6 E29.73372
G1 X95.117 Y115.6 E30.71985
G1 X94.902 Y115.56 E30.73076
G1 X94.693 Y115.424 E30.74321
G1 X94.576 Y115.307 E30.75146
G1 X94.452 Y115.128 E30.76232
G1 X94.4 Y114.883 E30.77482
G1 X94.4 Y95.117 E31.76095
G1 X94.44 Y94.902 E31.77186
G1 X94.576 Y94.693 E31.7843
G0 F3600 X94.859 Y94.976
G1 F2400 X94.976 Y94.859 E31.79255
G1 X95.117 Y94.8 E31.80018
G1 X114.883 Y94.8 E32.78631
G1 X115.024 Y94.859 E32.79394
G1 X115.141 Y94.976 E32.80219
G1 X115.2 Y95.117 E32.80982
G1 X115.2 Y114.883 E33.79595
G1 X115.141 Y115.024 E33.80357
G1 X115.024 Y115.141 E33.81183
G1 X114.883 Y115.2 E33.81945
G1 X95.117 Y115.2 E34.80558
G1 X94.976 Y115.141 E34.81321
G1 X94.859 Y115.024 E34.82146
G1 X94.8 Y114.883 E34.82909
G1 X94.8 Y95.117 E35.81522
G1 X94.859 Y94.976 E35.82284
G1 F1500 E29.32284
;MESH:xyzCalibration_cube.stl
G0 F3600 X95.614 Y95.614
G0 X114.33 Y114.33
G0 X114.8 Y114.8
;TYPE:WALL-OUTER
G1 F1500 E35.82284
G1 F2400 X95.2 Y114.8 E36.80069
G1 X95.2 Y95.2 E37.77854
G1 X114.8 Y95.2 E38.75639
G1 X114.8 Y114.8 E39.73423
G0 F3600 X114.6 Y114.8
G0 X114.4 Y114.4
;TYPE:WALL-INNER
G1 F2400 X95.6 Y114.4 E40.67217
G1 X95.6 Y95.6 E41.61011
G1 X114.4 Y95.6 E42.54804
G1 X114.4 Y114.4 E43.48598
G0 F3600 X114.01 Y114.01
;TYPE:SKIN
G1 F2400 X95.99 Y114.01 E44.385
G1 X95.99 Y95.99 E45.28402
G1 X114.01 Y95.99 E46.18304
G1 X114.01 Y114.01 E47.08206
G0 F3600 X113.829 Y96.293
G1 F2400 X113.706 Y96.17 E47.09074
G0 F3600 X113.14 Y96.17
G1 F2400 X113.829 Y96.858 E47.13932
G0 F3600 X113.829 Y97.424
G1 F2400 X112.574 Y96.17 E47.22783
G0 F3600 X112.009 Y96.17
G1 F2400 X113.829 Y97.99 E47.35624
G0 F3600 X113.829 Y98.555
G1 F2400 X111.443 Y96.17 E47.52455
G0 F3600 X110.877 Y96.17
G1 F2400 X113.829 Y99.121 E47.7328
G0 F3600 X113.829 Y99.687
G1 F2400 X110.312 Y96.17 E47.98094
G0 F3600 X109.746 Y96.17
G1 F2400 X113.829 Y100.252 E48.26898
G0 F3600 X113.829 Y100.818
G1 F2400 X109.18 Y96.17 E48.59696
G0 F3600 X108.615 Y96.17
G1 F2400 X113.829 Y101.384 E48.96483
G0 F3600 X113.829 Y101.949
G1 F2400 X108.049 Y96.17 E49.37261
G0 F3600 X107.483 Y96.17
G1 F2400 X113.829 Y102.515 E49.82032
G0 F3600 X113.829 Y103.081
G1 F2400 X106.918 Y96.17 E50.30793
G0 F3600 X106.352 Y96.17
G1 F2400 X113.829 Y103.647 E50.83547
G0 F3600 X113.829 Y104.212
G1 F2400 X105.786 Y96.17 E51.40291
G0 F3600 X105.221 Y96.17
G1 F2400 X113.829 Y104.778 E52.01025
G0 F3600 X113.829 Y105.344
G1 F2400 X104.655 Y96.17 E52.65753
G0 F3600 X104.089 Y96.17
G1 F2400 X113.829 Y105.909 E53.3447
G0 F3600 X113.829 Y106.475
G1 F2400 X103.523 Y96.17 E54.07181
G0 F3600 X102.958 Y96.17
G1 F2400 X113.829 Y107.041 E54.83882
G0 F3600 X113.829 Y107.606
G1 F2400 X102.392 Y96.17 E55.64573
G0 F3600 X101.826 Y96.17
G1 F2400 X113.829 Y108.172 E56.49257
G0 F3600 X113.829 Y108.738
G1 F2400 X101.261 Y96.17 E57.37931
G0 F3600 X100.695 Y96.17
G1 F2400 X113.829 Y109.303 E58.30595
G0 F3600 X113.829 Y109.869
G1 F2400 X100.129 Y96.17 E59.27252
G0 F3600 X99.564 Y96.17
G1 F2400 X113.829 Y110.435 E60.27899
G0 F3600 X113.829 Y111
G1 F2400 X98.998 Y96.17 E61.32537
G0 F3600 X98.432 Y96.17
G1 F2400 X113.829 Y111.566 E62.41167
G0 F3600 X113.829 Y112.132
G1 F2400 X97.867 Y96.17 E63.53788
G0 F3600 X97.301 Y96.17
G1 F2400 X113.829 Y112.697 E64.70398
G0 F3600 X113.829 Y113.263
G1 F2400 X96.735 Y96.17 E65.91002
G0 F3600 X96.169 Y96.169
G1 F2400 X113.829 Y113.829 E67.15603
G0 F3600 X113.263 Y113.829
G1 F2400 X96.169 Y96.735 E68.3621
G0 F3600 X96.169 Y97.3
G1 F2400 X112.697 Y113.829 E69.52828
G0 F3600 X112.132 Y113.829
G1 F2400 X96.169 Y97.866 E70.65455
G0 F3600 X96.169 Y98.432
G1 F2400 X111.566 Y113.829 E71.74089
G0 F3600 X111 Y113.829
G1 F2400 X96.169 Y98.997 E72.78734
G0 F3600 X96.169 Y99.563
G1 F2400 X110.435 Y113.829 E73.79388
G0 F3600 X109.869 Y113.829
G1 F2400 X96.169 Y100.129 E74.76049
G0 F3600 X96.169 Y100.694
G1 F2400 X109.303 Y113.829 E75.6872
G0 F3600 X108.738 Y113.829
G1 F2400 X96.169 Y101.26 E76.57401
G0 F3600 X96.169 Y101.826
G1 F2400 X108.172 Y113.829 E77.42089
G0 F3600 X107.606 Y113.829
G1 F2400 X96.169 Y102.391 E78.22786
G0 F3600 X96.169 Y102.957
G1 F2400 X107.041 Y113.829 E78.99494
G0 F3600 X106.475 Y113.829
G1 F2400 X96.169 Y103.523 E79.72209
G0 F3600 X96.169 Y104.088
G1 F2400 X105.909 Y113.829 E80.40933
G0 F3600 X105.344 Y113.829
G1 F2400 X96.169 Y104.654 E81.05668
G0 F3600 X96.169 Y105.22
G1 F2400 X104.778 Y113.829 E81.66409
G0 F3600 X104.212 Y113.829
G1 F2400 X96.169 Y105.786 E82.23157
G0 F3600 X96.169 Y106.351
G1 F2400 X103.647 Y113.829 E82.75918
G0 F3600 X103.081 Y113.829
G1 F2400 X96.169 Y106.917 E83.24686
G0 F3600 X96.169 Y107.483
G1 F2400 X102.515 Y113.829 E83.6946
G0 F3600 X101.949 Y113.829
G1 F2400 X96.169 Y108.048 E84.10245
G0 F3600 X96.169 Y108.614
G1 F2400 X101.384 Y113.829 E84.47039
G0 F3600 X100.818 Y113.829
G1 F2400 X96.169 Y109.18 E84.79841
G0 F3600 X96.169 Y109.745
G1 F2400 X100.252 Y113.829 E85.08652
G0 F3600 X99.687 Y113.829
G1 F2400 X96.169 Y110.311 E85.33473
G0 F3600 X96.169 Y110.877
G1 F2400 X99.121 Y113.829 E85.54301
G0 F3600 X98.555 Y113.829
G1 F2400 X96.169 Y111.442 E85.71139
G0 F3600 X96.169 Y112.008
G1 F2400 X97.99 Y113.829 E85.83987
G0 F3600 X97.424 Y113.829
G1 F2400 X96.169 Y112.574 E85.92842
G0 F3600 X96.169 Y113.139
G1 F2400 X96.858 Y113.829 E85.97707
G0 F3600 X96.293 Y113.829
G1 F2400 X96.169 Y113.705 E85.98582
;MESH:NONMESH
G0 F3600 X114.33 Y114.33
G0 X114.4 Y114.4
;TIME_ELAPSED:54.584590
;LAYER:1
M140 S60
;MESH:xyzCalibration_cube.stl
G0 F5400 X114.4 Y114.4 Z0.5
;TYPE:WALL-INNER
G1 F3600 X95.6 Y114.4 E86.61111
G1 X95.6 Y95.6 E87.2364
G1 X114.4 Y95.6 E87.86169
G1 X114.4 Y114.4 E88.48698
G0 F5400 X114.8 Y114.8
;TYPE:WALL-OUTER
G1 F2400 X95.2 Y114.8 E89.13888
G1 X95.2 Y95.2 E89.79078
G1 X114.8 Y95.2 E90.44268
G1 X114.8 Y114.8 E91.09458
G0 F5400 X114.6 Y114.8
G0 X114.33 Y114.33
G0 X114.01 Y114.01
;TYPE:SKIN
G1 F2400 X95.99 Y114.01 E91.69392
G1 X95.99 Y95.99 E92.29327
G1 X114.01 Y95.99 E92.89262
G1 X114.01 Y114.01 E93.49197
G0 F5400 X113.576 Y113.829
G1 F2400 X113.829 Y113.576 E93.50387
G0 F5400 X113.829 Y113.01
G1 F2400 X113.01 Y113.829 E93.54239
G0 F5400 X112.444 Y113.829
G1 F2400 X113.829 Y112.444 E93.60754
G0 F5400 X113.829 Y111.879
G1 F2400 X111.879 Y113.829 E93.69926
G0 F5400 X111.313 Y113.829
G1 F2400 X113.829 Y111.313 E93.8176
G0 F5400 X113.829 Y110.747
G1 F2400 X110.747 Y113.829 E93.96257
G0 F5400 X110.182 Y113.829
G1 F2400 X113.829 Y110.182 E94.13411
G0 F5400 X113.829 Y109.616
G1 F2400 X109.616 Y113.829 E94.33228
G0 F5400 X109.05 Y113.829
G1 F2400 X113.829 Y109.05 E94.55707
G0 F5400 X113.829 Y108.485
G1 F2400 X108.485 Y113.829 E94.80844
G0 F5400 X107.919 Y113.829
G1 F2400 X113.829 Y107.919 E95.08642
G0 F5400 X113.829 Y107.353
G1 F2400 X107.353 Y113.829 E95.39103
G0 F5400 X106.787 Y113.829
G1 F2400 X113.829 Y106.787 E95.72227
G0 F5400 X113.829 Y106.222
G1 F2400 X106.222 Y113.829 E96.08008
G0 F5400 X105.656 Y113.829
G1 F2400 X113.829 Y105.656 E96.46451
G0 F5400 X113.829 Y105.09
G1 F2400 X105.09 Y113.829 E96.87557
G0 F5400 X104.525 Y113.829
G1 F2400 X113.829 Y104.525 E97.3132
G0 F5400 X113.829 Y103.959
G1 F2400 X103.959 Y113.829 E97.77745
G0 F5400 X103.393 Y113.829
G1 F2400 X113.829 Y103.393 E98.26833
G0 F5400 X113.829 Y102.828
G1 F2400 X102.828 Y113.829 E98.78578
G0 F5400 X102.262 Y113.829
G1 F2400 X113.829 Y102.262 E99.32986
G0 F5400 X113.829 Y101.696
G1 F2400 X101.696 Y113.829 E99.90056
G0 F5400 X101.131 Y113.829
G1 F2400 X113.829 Y101.131 E100.49783
G0 F5400 X113.829 Y100.565
G1 F2400 X100.565 Y113.829 E101.12173
G0 F5400 X99.999 Y113.829
G1 F2400 X113.829 Y99.999 E101.77225
G0 F5400 X113.829 Y99.434
G1 F2400 X99.434 Y113.829 E102.44935
